X: 1
T: reel des Accord\'eonistes
C: Marcel Messervier
R: reel
Z: 2005 John Chambers <jc:trillian.mit.edu>
M: C|
L: 1/8
K: D
 FG | "D"A2df  "G"edcB | "A7"ABAG "D"F2EF |\
[1,3 "Em"GAGF "A7"EBB2 | "A7"ABAG "D"FD :|\
[2,4 "Em"GFEF "A7"GABc | "D"df"A"ec "D"d2 :|
|: "D7"A2 |:\
  "G"B2{cB}GB d2cB  | "D"A2{BA}FA dAFA |\
[1,3 "A7"GECE A,ECE | "D"DEFG A2FA :|\
[2,4 "Em"efed "A7"cBAG | "A7"F{G}ABc "D"d2 :|
%%text 3rd part not always used:
|: "D7"~d2 \
| "G"dBGd BGdB | "D"FdAF d2cd |\
[1,3 "Em"e2d2 "A7"(3cdc (3BcB | "A7"ABAG "D"Fd :|\
[2,4 "Em"efed "A7"cBAG | "A7"F{G}ABc "D"d2 :|
